X: 1644
T: Kath McCaughey's Varsovianna No 1
B: australian traditional tunes wiki
M:3/4
L:1/8
R: Varsovienne
Q: 1/4=100
K:D
V:1 
d>e|"D"f>d A>d f>a|"A7"e4e>f|"A"a>e c>e g>b|"D"a4 f>g|"D"a>f d>fa2|"G"b4A>d|"A"f>A f>A e>A|"D"d4f>a|
"G"b>g d>gb2|"D"a>f d>fa2|"A7"g2f2e2|"D"a4f>a|"G"b>g d>g b>g|"D"a>f d>f a>A|"A"f>A f>A e>A|"D"d6||
% abcbook-tune_id 6342d53a54542290c4dee0c2


% abcbook-boost 0
% abcbook-tablature 
% abcbook-transpose 
% abcbook-lastupdated 1665324375760
% abcbook-soundfonts 
% abcbook-repeats 1
% NFF Book 2015

